proprietary/assets/icons/gezondheid-en-zorg/ehbo-aed.svg

<svg viewBox="0 0 64 64" xmlns="http://www.w3.org/2000/svg"><path d="m0 0h64v64h-64z" fill="none"/><path d="m24.25 50.35-2.18 7.46h1.53l.4-1.61h2.52l.41 1.61h1.7l-2.17-7.46zm.05 4.65.92-3.44h.08l.92 3.44z"/><path d="m31.25 54.58h2.3v-1.2h-2.3v-1.82h2.5v-1.21h-3.98v7.46h4.01v-1.21h-2.53z"/><path d="m37.55 50.35h-2.17v7.46h2.1c2.5 0 4-1.24 4-4 .04-2.17-1.36-3.46-3.93-3.46zm0 6.25h-.69v-5h.6a2.22 2.22 0 0 1 2.54 2.33c0 1.9-1 2.67-2.45 2.67z"/><path d="m34.73 27.64h-4.35l-2.17 6.39h3.04l.01 5.47 5.34-7.66h-3.22z"/><path d="m51.41 8.34a114.85 114.85 0 0 0 -19.41-1.6 114.85 114.85 0 0 0 -19.41 1.6 1.9 1.9 0 0 0 -1.59 1.88v33.51a1.9 1.9 0 0 0 1.58 1.88 114.52 114.52 0 0 0 19.42 1.61 114.52 114.52 0 0 0 19.41-1.61 1.9 1.9 0 0 0 1.59-1.88v-33.51a1.9 1.9 0 0 0 -1.59-1.88zm-18.95 33.39a1 1 0 0 1 -.92 0c-10.89-5.73-11.2-15.95-6.54-18.01s7 2.4 7 2.4 2.3-4.5 7-2.4 4.35 12.28-6.54 18.01zm16.72-23.5h-34.36a.32.32 0 0 1 -.36-.36l2.54-.51v-3.63a112.85 112.85 0 0 1 30 0v3.63l2.55.51a.32.32 0 0 1 -.37.36z"/></svg>

<svg xmlns="http://www.w3.org/2000/svg" viewBox="0 0 64 64"><defs><style>.cls-1{fill:none;}</style></defs><g id="BOX"><rect class="cls-1" width="64" height="64"/></g><g id="ICOON"><path d="M24.25,50.35l-2.18,7.46H23.6L24,56.2h2.52l.41,1.61h1.7l-2.17-7.46ZM24.3,55l.92-3.44h.08L26.22,55Z"/><polygon points="31.25 54.58 33.55 54.58 33.55 53.38 31.25 53.38 31.25 51.56 33.75 51.56 33.75 50.35 29.77 50.35 29.77 57.81 33.78 57.81 33.78 56.6 31.25 56.6 31.25 54.58"/><path d="M37.55,50.35H35.38v7.46h2.1c2.5,0,4-1.24,4-4C41.52,51.64,40.12,50.35,37.55,50.35Zm0,6.25h-.69v-5h.6A2.22,2.22,0,0,1,40,53.93C40,55.83,39,56.6,37.55,56.6Z"/><polygon points="34.73 27.64 30.38 27.64 28.21 34.03 31.25 34.03 31.26 39.5 36.6 31.84 33.38 31.84 34.73 27.64"/><path d="M51.41,8.34A114.85,114.85,0,0,0,32,6.74a114.85,114.85,0,0,0-19.41,1.6A1.9,1.9,0,0,0,11,10.22V43.73a1.9,1.9,0,0,0,1.58,1.88A114.52,114.52,0,0,0,32,47.22a114.52,114.52,0,0,0,19.41-1.61A1.9,1.9,0,0,0,53,43.73V10.22A1.9,1.9,0,0,0,51.41,8.34ZM32.46,41.73a1,1,0,0,1-.92,0C20.65,36,20.34,25.78,25,23.72s7,2.4,7,2.4,2.3-4.5,7-2.4S43.35,36,32.46,41.73Zm16.72-23.5H14.82a.32.32,0,0,1-.36-.36L17,17.36V13.73a112.85,112.85,0,0,1,30,0v3.63l2.55.51A.32.32,0,0,1,49.18,18.23Z"/></g></svg>
